!!!!SEGMENT: pl-sa--552-a-ix-32--019_anonim--polonaise.krn
!!!cenid: 18xx:530
!!!COM: Anonim
!!!COM-rismID: pe30004985
!!!CDT:
!!!CNT:
!!!OTL: Polonaise
!!!PDT:
!!!AGN: Secular; Polonaise
!!!SMS-siglum: PL-SA
!!!SMS-shelfmark: 552/A IX 32
!!!SMS-shelfwork: 019 W
!!!SMS-variant:
!!!SMS-altvar:
!!!NIFC-rismSourceID: 1001069532
!!!NIFC-rismChildID: 1001069532
!!!NIFC-islandoraID: none
!!!URL-pdf-islandora:
!!!URL-scan: https://bc.bdsandomierz.pl/dlibra/publication/1308/edition/1276/content @EN{Scan in the Sandomierz Diocese Digital Library} @PL{Skany w portalu Cyfrowa Biblioteka Diecezjalna w Sandomierzu}
!!!ONB-nifc: Str. 10 (s. 5) – str. 11 (s. 3)
!!!AIN: 1 piano
!!!key:
**kern	**kern
*part1	*part1
*staff2	*staff1
*Ipiano	*Iempty
*I"Piano	*
*I'pf	*
*clefF4	*clefG2
*k[b-]	*k[b-]
*F:	*F:
*M3/4	*M3/4
*>[A,A,B,B,A,B,C,C,D,D,C,D]	*
=1	=1
*>A	*>A
!LO:TX:a:t=P:problem=omyłkowo wpisany klucz F3	!LO:TX:a:t=P:problem=mixed beam
!	!LO:TX:a:i:t=Polonez
16AALL 16FF/	8ff\L
16F/	.
16C/	16f/L
16F/JJ	16e/
*rep	*
16AALL 16FF/	16f/
16F/	16e/
16C/	16f/
16F/JJ	16e/JJ
*Xrep	*
*rep	*
16AALL 16FF/	16f/LL
16F/	16e/
16C/	16f/
16F/JJ	16e/JJ
*Xrep	*
=2	=2
*rep	*
16AALL 16FF/	8f/
16F/	.
16C/	4aa\
16F/JJ	.
16AALL 16FF/	.
16F/	.
16C/	16gg\LL
16F/JJ	16ff\JJ
16AALL 16FF/	16ee\LL
16F/	16ff\
16C/	16gg\
16F/JJ	16ff\JJ
*Xrep	*
=3	=3
!	!LO:TX:a:t=P:problem=mixed beam
16CC/LL	8bb-\L
16C/	.
16GG/	16c/L
16C/JJ	16Bn/JJ
*rep	*
16CC/LL	16c/LL
16C/	16B/
16GG/	16c/
16C/JJ	16B/JJ
*Xrep	*
*rep	*rep
16CC/LL	16c/LL
16C/	16B/
16GG/	16c/
16C/JJ	16B/JJ
*Xrep	*Xrep
=4	=4
*rep	*
16CC/LL	8c/
16C/	.
16GG/	4bb-\
16C/JJ	.
16CC/LL	.
16C/	.
16GG/	8ccM\L
16C/JJ	.
16CC/LL	8dd\
16C/	.
16GG/	8ee\J
16C/JJ	.
*Xrep	*
=5	=5
8FL 8FF/	4.ff\
*clefG2	*
8c/J	.
*tremolo	*
8a 8f/L	.
8c/	16ee\LL
.	16dd\JJ
8a 8f/	16cc\LL
.	16aa\
8c/J	16gg\
.	16ff\JJ
=6	=6
.	8qee/
8b- 8g/L	8.bb-\L
8c/	.
.	16gg\Jk
8b- 8g/	4ee\
8c/	.
8b- 8g/	4r
8c/J	.
=7	=7
*rep	*
8b- 8g/L	8.gg\L
8c/	.
.	16ff\Jk
8b- 8g/	16ee\LL
.	16cc\
8c/	16dd\
.	16ee\JJ
8b- 8g/	16ff\LL
.	16ff#X\
8c/J	16gg\
.	16gg#X\JJ
*Xrep	*
=8	=8
8a 8f/L	16gg#X\LL
.	16aa\
8c/	16ee\
.	16ff\JJ
8a 8f/	4ff\
8c/	.
8a 8f/	4ryy
8c/J	.
!!LO:LB:g=original
=9	=9
*clefF4	*
!LO:TX:a:t=P:problem=omyłkowo wpisany klucz F3	!
16ALL 16F\	16ff\LL
16c\	16cc\
16A\	16a\
16c\JJ	16cc\JJ
*rep	*
16ALL 16F\	16ff\LL
16c\	16cc\
16A\	16aa\
16c\JJ	16gg\JJ
*Xrep	*
*rep	*
16ALL 16F\	16gg\LL
16c\	16ff\
16A\	16ee\
16c\JJ	16ff\JJ
*Xrep	*
=10	=10
16B-LL 16G\	16gg\LL
16d\	16dd\
16G\	16b-\
16d\JJ	16dd\JJ
*rep	*
16B-LL 16G\	16gg\LL
16d\	16dd\
16G\	16bb-\
16d\JJ	16aa\JJ
*Xrep	*
*rep	*
16B-LL 16G\	16aa\LL
16d\	16gg\
16G\	16ff#X\
16d\JJ	16gg\JJ
*Xrep	*
=11	=11
16B-LL 16G\	16ee\LL
16c\	16cc\
16G\	16bn\
16c\JJ	16cc\JJ
*rep	*
16B-LL 16G\	16ee\LL
16c\	16cc\
16G\	16gg\
16c\JJ	16ee\JJ
*Xrep	*
*rep	*
16B-LL 16G\	16ccc\LL
16c\	16gg\
16G\	16ee\
16c\JJ	16gg\JJ
*Xrep	*
=12	=12
4F 4FF/	16ff\LL
.	16cc\
.	16aa\
.	16ff\JJ
4E 4EE/	16ee\LL
.	16bb-\
.	16gg\
.	16ee\JJ
4C 4CC/	16r
.	16cc\LL
.	16dd\
.	16ee\JJ
=13	=13
!LO:TX:a:t=P:problem=mixed beam	!
8FL 8FF/	8ff\L
8c\J	8cc\J
*2\right	*
8A 8F\L	8r
8c\	16aa\LL
.	16gg\JJ
8A 8F\	8ff\L
8c\J	8ff#X\J
=14	=14
8B- 8G\L	8gg\L
8d\	8dd\J
8B- 8G\	8r
8d\	16bb-\LL
.	16aa\JJ
8B- 8G\	8gg\L
8d\J	8ff\J
=15	=15
8B- 8G 8E\L	8ee\L
8c\	8cc\J
8B- 8G 8E\	8r
8c\	16gg\LL
.	16ff\JJ
8B- 8G 8E\	16ee\LL
.	16cc\
8c\J	16dd\
.	16ee\JJ
=16	=16
4c 4A 4F\	8ff\L
.	32ff\LL
.	32ee\
.	32ff\
.	32aa\JJJ
4F 4FF/	4ff\
4r	4r
!!LO:PB:g=original
=17:|!|:	=17:|!|:
*>B	*>B
!LO:TX:a:t=P:problem=mixed beam	!
8DL 8DD/	8ff#X\L
8d\J	8aa\J
8cL 8A\	8r
8d\	8cc\L
8A 8F#X\	8dd\
8d\J	8ee\J
=18	=18
!LO:TX:a:t=P:problem=mixed beam	!
8GL 8GG/	8.gg\L
8d\J	.
.	16bbn\Jk
8cnL 8A\	4gg\
8d\J	.
*rep	*
8cnL 8A\	4r
8d\J	.
*Xrep	*
=19	=19
2.D 2.DD/	16ff#X\LL
.	16ddd\
.	16ccc#X\
.	16cccn\JJ
.	16bbn\LL
.	16aa-X\
.	16gg\
.	16ggJJ 16ee\
.	16ff#\LL
.	16aa-\
.	16dd\
.	16ff#\JJ
=20	=20
!LO:TX:a:t=P:problem=mixed beam	!
8GL 8GG/	8.gg\L
8d\J	.
.	16bbn\Jk
8BnL 8G\	4gg\
8d\J	.
*rep	*
8BL 8G\	4r
8d\J	.
*Xrep	*
=21	=21
!LO:TX:a:t=P:problem=mixed beam	!
8CL 8CC/	8ee\L
8c\J	8gg\J
8B-XL 8G\	8r
8c\J	8cc\L
*rep	*
8B-L 8G\	8dd\
8c\J	8ee\J
*Xrep	*
=22	=22
!LO:TX:a:t=P:problem=mixed beam	!
8FL 8FF/	8.ff\L
8c\J	.
.	16aa\Jk
8AL 8F\	4ff\
8c\J	.
*rep	*
8AL 8F\	4r
8c\J	.
*Xrep	*
=23	=23
8C 8CC/	8cc\
4C 4CC/	4cc\
8CL 8CC/	8ccM\L
8D 8DD/	8dd\
!LO:TX:a:t=P:problem=brak znaku repetycji na kresce taktowej	!LO:TX:a:t=P:problem=brak znaku repetycji na kresce taktowej
!	!LO:TX:b:i:t=Polonez Da Capo
8EJ 8EE/	8ee\J
!!LO:LB:g=original
=24||	=24||
*>C	*>C
*clefG2	*clefF4
*k[b-e-]	*k[b-e-]
!	!LO:TX:a:t=P:problem=mixed beam
!	!LO:TX:a:t=P:problem=omyłkowo wpisany klucz F3
8dd 8b-\L	8B-\L
8ff\	8.BB-/J
8dd 8b-\	.
.	16BB-\LL
8ff\	16D\
.	16BB-\JJ
8dd 8b-\	16B-\LL
.	16F\
8ff\J	16d\
.	16B-\JJ
=25	=25
8ee- 8cc 8a\L	8.e-\L
8ff\	.
.	16c\Jk
8ee- 8cc 8a\	4A\
8ff\	.
8ee- 8cc 8a\	4r
8ff\J	.
=26	=26
*rep	*
8ee- 8cc 8a\L	16F\LL
.	16C\
8ff\	16A\
.	16F\JJ
8ee- 8cc 8a\	16c\LL
.	16A\
8ff\	16e-\
.	16c\JJ
8ee- 8cc 8a\	16A\LL
.	16F\
8ff\J	16G\
.	16A\JJ
*Xrep	*
=27	=27
8dd 8b-\L	16c#X\LL
.	16d\
8ff\	16A\
.	16B-\JJ
8dd 8b-\	4B-\
8ff\	.
8dd 8b-\	4r
8ff\J	.
=28	=28
*rep	*
8dd 8b-\L	16B-\LL
.	16F\
8ff\	16D\
.	16F\JJ
8dd 8b-\	16B-\LL
.	16F\
8ff\	16d\
.	16c\JJ
8dd 8b-\	16c\LL
.	16B-\
8ff\J	16A\
.	16B-\JJ
*Xrep	*
=29	=29
8ee-L 8cc\	16c\LL
.	16B- 16G\
!	!LO:TX:a:t=e
8gg\J	16G 16E-\
.	16B-JJ 16G\
*rep	*
8ee-L 8cc\	16c\LL
.	16G\
8gg\J	16e-\
.	16d\JJ
*Xrep	*
*rep	*
8ee-L 8cc\	16d\LL
.	16c\
8gg\J	16Bn\
.	16c\JJ
*Xrep	*
=30	=30
8ee- 8cc 8a\L	8A\L
8ff\	8.F\J
8ee- 8cc 8a\	.
.	16A\LL
8ff\	16c\
.	16A\JJ
!!LO:LB:g=original
!LO:TX:a:t=P:problem=zbędny znak powtórzenia grupy	!
8ee- 8cc 8a\	16e-\LL
.	16c\
8ff\J	16A\
.	16c\JJ
=31	=31
8ddL 8b-\	16B-\LL
.	16A\
8ffJ 8dd\	16B-\
.	16d\JJ
8ee-L 8cc\	16c\LL
.	16e-\
8ffJ 8dd\	16A\
.	16c\JJ
4dd 4b-\	4B-\
=32:|!|:	=32:|!|:
*>D	*>D
*clefF4	*clefG2
16A\LL	4r
16F\	.
16c\	.
16A\JJ	.
8e-\	8r
8r	16ee-\LL
.	16eee-\JJ
4r	16cc\LL
.	16ccc\JJ
.	16a\LL
.	16aa\JJ
=33	=33
16B-\LL	4r
16F\	.
16d\	.
16B-\JJ	.
8f\	8r
8r	16ff\LL
.	16fff\JJ
4r	16dd\LL
.	16ddd\JJ
.	16b-\LL
.	16bb-\JJ
=34	=34
*clefG2	*
16en/LL	4r
16c/	.
16g/	.
16e/JJ	.
!	!LO:N:vis=8
4r	8r
.	16cc\LL
.	16ccc\JJ
4r	16dd\LL
.	16ddd\JJ
.	16een\LL
.	16eeeny\JJ
=35	=35
!LO:TX:a:t=P:problem=na początku taktu skreślone nuty	!
8a 8f/	8fff 8aa\
4a 4f/	4fff 4aa\
8a 8f/	8fff 8aa\
8bnL 8g/	8gggnL 8bbn\
!LO:TX:a:t=P:problem=brak znaku repetycji na kresce taktowej	!LO:TX:a:t=P:problem=brak znaku repetycji na kresce taktowej
!	!LO::v:SIC:n=2:s=bb-
!	!LO:TX:b:i:t=Trio Da Capo
8b-XJ 8g/	8eee-XJ 8bb\
==	==
*-	*-
!!!system-decoration: {s1,s2}
!!!ENC: Marta Lawrence
!!!END: 2020-12-12
!!!ENC: Marcin Jachim
!!!END: 2020-06-18
!!!YEC: Copyright 2022 Narodowy Instytut Fryderyka Chopina (https://polishscores.org)
!!!YEM: License CC-BY-4.0 (https://creativecommons.org/licenses/by/4.0)
